dist/img/num5.svg

<svg width="47" height="50" viewBox="0 0 47 50" fill="none" xmlns="http://www.w3.org/2000/svg">
<path d="M45.4712 45.0015V22.4076C45.4712 21.2283 44.5213 20.2723 43.3494 20.2723H33.2732V14.1249C33.2732 13.5443 32.9605 13.0092 32.4569 12.7264L24.2754 8.13527C24.2303 8.1099 24.1837 8.08765 24.1369 8.06715V5.44714H28.5426C28.894 5.44714 29.1791 5.16026 29.1791 4.80651V1.57075C29.1791 1.217 28.894 0.930127 28.5426 0.930127H24.1369V0.640627C24.1369 0.286876 23.8521 0 23.5004 0C23.1487 0 22.8638 0.286876 22.8638 0.640627V8.06715C22.817 8.08777 22.7704 8.11002 22.7252 8.13527L14.5437 12.7265C14.0396 13.0092 13.7272 13.5444 13.7272 14.125V20.2723H3.65074C2.4788 20.2723 1.52897 21.2283 1.52897 22.4076V45.0014C0.627463 45.4119 0 46.3242 0 47.3844C0 48.8291 1.16375 50 2.5993 50H44.4007C45.8363 50 47 48.8291 47 47.3844C46.9999 46.3242 46.3725 45.4119 45.4712 45.0015ZM37.2693 27.7146C37.2693 27.0277 37.8227 26.4708 38.5058 26.4708H40.817C41.4995 26.4708 42.0531 27.0277 42.0531 27.7146V30.0405C42.0531 30.7273 41.4995 31.2842 40.817 31.2842H38.506C37.8228 31.2842 37.2694 30.7273 37.2694 30.0405V27.7146H37.2693ZM37.2693 35.1876C37.2693 34.5007 37.8227 33.9438 38.5058 33.9438H40.817C41.4995 33.9438 42.0531 34.5007 42.0531 35.1876V37.5132C42.0531 38.2001 41.4995 38.757 40.817 38.757H38.506C37.8228 38.757 37.2694 38.2001 37.2694 37.5132V35.1876H37.2693ZM29.843 27.7146C29.843 27.0277 30.3961 26.4708 31.0788 26.4708H33.3902C34.0725 26.4708 34.6261 27.0277 34.6261 27.7146V30.0405C34.6261 30.7273 34.0725 31.2842 33.3902 31.2842H31.0788C30.3961 31.2842 29.843 30.7273 29.843 30.0405V27.7146ZM29.843 35.1876C29.843 34.5007 30.3961 33.9438 31.0788 33.9438H33.3902C34.0725 33.9438 34.6261 34.5007 34.6261 35.1876V37.5132C34.6261 38.2001 34.0725 38.757 33.3902 38.757H31.0788C30.3961 38.757 29.843 38.2001 29.843 37.5132V35.1876ZM23.5 14.1299C25.4337 14.1299 27.0013 15.7072 27.0013 17.6529C27.0013 19.5987 25.4338 21.1758 23.5 21.1758C21.5663 21.1758 19.9988 19.5985 19.9988 17.6528C19.9988 15.707 21.5663 14.1299 23.5 14.1299ZM19.994 34.3546C19.994 33.6677 20.5473 33.1108 21.2304 33.1108H25.7697C26.4525 33.1108 27.0058 33.6677 27.0058 34.3546V44.1534C27.0058 44.3776 26.9463 44.5877 26.8428 44.7695H20.1577C20.0542 44.5877 19.9944 44.3776 19.9944 44.1534L19.994 34.3546ZM12.3736 27.7146C12.3736 27.0277 12.9269 26.4708 13.6095 26.4708H15.9209C16.6035 26.4708 17.1568 27.0277 17.1568 27.7146V30.0405C17.1568 30.7273 16.6035 31.2842 15.9209 31.2842H13.6095C12.9269 31.2842 12.3736 30.7273 12.3736 30.0405V27.7146ZM12.3736 35.1876C12.3736 34.5007 12.9269 33.9438 13.6095 33.9438H15.9209C16.6035 33.9438 17.1568 34.5007 17.1568 35.1876V37.5132C17.1568 38.2001 16.6035 38.757 15.9209 38.757H13.6095C12.9269 38.757 12.3736 38.2001 12.3736 37.5132V35.1876ZM4.94654 27.7146C4.94654 27.0277 5.49984 26.4708 6.18283 26.4708H8.49392C9.17679 26.4708 9.73022 27.0277 9.73022 27.7146V30.0405C9.73022 30.7273 9.17679 31.2842 8.49392 31.2842H6.18296C5.49996 31.2842 4.94666 30.7273 4.94666 30.0405V27.7146H4.94654ZM4.94654 35.1876C4.94654 34.5007 5.49984 33.9438 6.18283 33.9438H8.49392C9.17679 33.9438 9.73022 34.5007 9.73022 35.1876V37.5132C9.73022 38.2001 9.17679 38.757 8.49392 38.757H6.18296C5.49996 38.757 4.94666 38.2001 4.94666 37.5132V35.1876H4.94654Z" fill="#FF9623"/>
</svg>

<svg width="47" height="50" fill="none" xmlns="http://www.w3.org/2000/svg"><path d="M45.471 45.002V22.407c0-1.18-.95-2.136-2.122-2.136H33.273v-6.147c0-.58-.313-1.116-.816-1.399l-8.182-4.59a1.552 1.552 0 0 0-.138-.069v-2.62h4.406a.639.639 0 0 0 .636-.64V1.57a.639.639 0 0 0-.636-.64h-4.406V.64A.639.639 0 0 0 23.5 0a.639.639 0 0 0-.636.64v7.427c-.047.02-.094.043-.139.068l-8.181 4.591a1.603 1.603 0 0 0-.817 1.399v6.147H3.651a2.128 2.128 0 0 0-2.122 2.136V45A2.616 2.616 0 0 0 0 47.384 2.607 2.607 0 0 0 2.6 50h41.8c1.436 0 2.6-1.17 2.6-2.616 0-1.06-.627-1.972-1.529-2.383zM37.27 27.715a1.24 1.24 0 0 1 1.237-1.244h2.311a1.24 1.24 0 0 1 1.236 1.244v2.326a1.24 1.24 0 0 1-1.236 1.243h-2.311a1.24 1.24 0 0 1-1.237-1.243v-2.326zm0 7.473a1.24 1.24 0 0 1 1.237-1.244h2.311a1.24 1.24 0 0 1 1.236 1.244v2.325a1.24 1.24 0 0 1-1.236 1.244h-2.311a1.24 1.24 0 0 1-1.237-1.244v-2.325zm-7.426-7.473a1.24 1.24 0 0 1 1.236-1.244h2.311a1.24 1.24 0 0 1 1.236 1.244v2.326a1.24 1.24 0 0 1-1.236 1.243H31.08a1.24 1.24 0 0 1-1.236-1.243v-2.326zm0 7.473a1.24 1.24 0 0 1 1.236-1.244h2.311a1.24 1.24 0 0 1 1.236 1.244v2.325a1.24 1.24 0 0 1-1.236 1.244H31.08a1.24 1.24 0 0 1-1.236-1.244v-2.325zM23.5 14.13c1.934 0 3.501 1.577 3.501 3.523 0 1.946-1.567 3.523-3.501 3.523s-3.501-1.577-3.501-3.523c0-1.946 1.567-3.523 3.501-3.523zm-3.506 20.225a1.24 1.24 0 0 1 1.236-1.244h4.54a1.24 1.24 0 0 1 1.236 1.244v9.798c0 .225-.06.435-.163.617h-6.685a1.241 1.241 0 0 1-.164-.617v-9.798zm-7.62-6.64a1.24 1.24 0 0 1 1.236-1.244h2.31a1.24 1.24 0 0 1 1.237 1.244v2.326a1.24 1.24 0 0 1-1.236 1.243H13.61a1.24 1.24 0 0 1-1.236-1.243v-2.326zm0 7.473a1.24 1.24 0 0 1 1.236-1.244h2.31a1.24 1.24 0 0 1 1.237 1.244v2.325a1.24 1.24 0 0 1-1.236 1.244H13.61a1.24 1.24 0 0 1-1.236-1.244v-2.325zm-7.427-7.473a1.24 1.24 0 0 1 1.236-1.244h2.31a1.24 1.24 0 0 1 1.237 1.244v2.326a1.24 1.24 0 0 1-1.236 1.243H6.183a1.24 1.24 0 0 1-1.236-1.243v-2.326zm0 7.473a1.24 1.24 0 0 1 1.236-1.244h2.31a1.24 1.24 0 0 1 1.237 1.244v2.325a1.24 1.24 0 0 1-1.236 1.244H6.183a1.24 1.24 0 0 1-1.236-1.244v-2.325z" fill="#FF9623"/></svg>
